X: 090
M: C|
L: 1/8
K: F
cB |\
|: (3(cde) |\
fcAc fagf | gece gbag |
afge fdgf | e2c2- c2fc |\
(3(def) (3(ABc) B2ba | gfed c2BA |\
(3(Bcd) (3(EFG) FdcB | (A2F2 F2) :|

